X:1
T:Jersey City, 85.85 D
T:Jersey City, 85.85 D
T:W. Irving Hartshorn, 1879
T:Public Domain Courtesy of the Cyber Hymnal™
C:W. Irving Hartshorn, 1879
Z:Public Domain
Z:Courtesy of the Cyber Hymnal™
%%score ( 1 2 ) ( 3 4 )
L:1/8
Q:1/4=80
M:2/4
K:Bb
V:1 treble 
V:2 treble 
V:3 bass 
V:4 bass 
V:1
 [Fd]>[Ec] [DB][FA] | [EG]>[FA] [GB][EG] | [DF][FB] [EA][DB] | [Fc]3 z | [Fd]>[Ec] [DB][FA] | %5
 [EG]>[FA] [GB][EG] | F[DB] [Fd]>[Ec] | [DB]3 z | [Fd]>[Fd] [Fd][Fd] | [GB]>[GB] [GB][GB] | %10
 [^FA][FA] [FA][FA] | G3 z | [Fd]>[Ec] [DB][FA] | [EG]>[FA] [GB][EG] | F[DB] [Fd]>[Ec] | [DB]3 z |] %16
V:2
 x4 | x4 | x4 | x4 | x4 | x4 | F x3 | x4 | x4 | x4 | x4 | G3 x | x4 | x4 | F x3 | x4 |] %16
V:3
 [B,,B,]>[B,,B,] [B,,B,][D,B,] | [E,B,]>[E,B,] [E,B,][E,B,] | [B,,B,][D,B,] [C,F,][B,,F,] | %3
 [F,A,]3 z | [B,,B,]>[B,,B,] [B,,B,][B,,B,] | [E,B,]>[E,B,] [E,B,][E,B,] | %6
 [D,B,][G,B,] [F,B,]>[F,A,] | [B,,B,]3 z | B,>B, B,B, | [G,D]>[G,D] [G,D][G,D] | %10
 [D,D][D,D] [D,D][D,D] | [E,B,]3 z | [B,,B,]>[B,,B,] [B,,B,][B,,B,] | [E,B,]>[E,B,] [E,B,][E,B,] | %14
 [D,B,][G,B,] [F,B,]>[F,A,] | [B,,B,]3 z |] %16
V:4
 x4 | x4 | x4 | x4 | x4 | x4 | x4 | x4 | B,>B, B,B, | x4 | x4 | x4 | x4 | x4 | x4 | x4 |] %16

